!!!OTL: Chang yihetuan
!!!ARE: Asia, China, Shanxi Yangcheng
!! I, 294
!!!SCT: C2097
!!!YEM: Copyright 1995, estate of Helmut Schaffrath.
**kern
*ICvox
*Ivox
!! Mixed meters:  2/4; 3/4
*M3/4
*k[f#]
*G:
{4dd
8b
8dd
=1
4a
8g
8b
=2
4e
8e
8d
=3
4e
4e}
=4
{8dd
8ee
8ee
8dd
=5
8b
8dd
8g
8g
8g
8e
=6
*M2/4
8ee
8ee
8ee
8b
=7
4dd
4dd}
=8
{8dd
8ee
4b
=9
8b
16a
16b
4a
=10
8dd
8dd
8e
8g
=11
4a
8a
8b
=12
4a
4a}
==
!!!AGN: Xiaodiao, shizidiao
!! Han
!!!ONB: ESAC (Essen Associative Code) Database: SENGANSU
!!!AMT: irregular
!!!AIN: vox
!!!EED: Helmut Schaffrath
!!!EEV: 1.0
*-
